source/img/icon-feature-ball.svg

<svg width="35" height="34" viewBox="0 0 35 34" fill="none" xmlns="http://www.w3.org/2000/svg">
<path d="M0.305558 13.9528C-0.101853 16.0303 -0.101853 18.1079 0.305558 20.1854L4.48152 17.0196L0.305558 13.9528Z" fill="#63D1BB"/>
<path d="M24.852 1.586C19.9631 -0.590493 14.2594 -0.590493 9.26857 1.98172L16.9075 7.52187L24.852 1.586Z" fill="#63D1BB"/>
<path d="M34.528 13.062L29.6391 16.7225L34.6299 20.3829C35.1392 18.0086 35.1392 15.4364 34.528 13.062Z" fill="#63D1BB"/>
<path d="M9.37046 32.057C14.2594 34.5303 20.2687 34.7281 25.3613 32.1559L17.1113 26.1211L9.37046 32.057Z" fill="#63D1BB"/>
<path d="M8.04639 14.2488L1.73152 9.698C1.42596 10.3905 1.1204 11.083 0.916698 11.7756L6.31489 15.7328L8.04639 14.2488Z" fill="#63D1BB"/>
<path d="M18.9446 24.8349L27.3983 30.9686C27.7039 30.7707 28.0095 30.5729 28.2132 30.375C28.5187 30.1772 28.8243 29.8804 29.1298 29.5836L20.6761 23.4498L18.9446 24.8349Z" fill="#63D1BB"/>
<path d="M11.6112 11.5781L4.07412 6.13684C3.56486 6.6315 3.15745 7.22509 2.75003 7.81867L9.77787 12.9631L11.6112 11.5781Z" fill="#63D1BB"/>
<path d="M22.5094 22.1635L30.7595 28.1983C31.2688 27.7036 31.6762 27.11 32.0836 26.5165L24.2409 20.7784L22.5094 22.1635Z" fill="#63D1BB"/>
<path d="M15.176 8.90696L7.33339 3.16895C7.12969 3.26788 6.92598 3.46574 6.72228 3.56467C6.31487 3.86146 5.90746 4.15826 5.6019 4.55398L13.4446 10.1931L15.176 8.90696Z" fill="#63D1BB"/>
<path d="M26.0743 19.3936L33.204 24.538C33.5095 23.8455 33.8151 23.2519 34.1206 22.5594L27.9076 18.0085L26.0743 19.3936Z" fill="#63D1BB"/>
<path d="M26.8891 2.67419L0.916698 22.3615C1.1204 23.054 1.42596 23.7466 1.73152 24.4391L28.7225 3.9603C28.2132 3.46564 27.6021 3.06992 26.8891 2.67419Z" fill="#63D1BB"/>
<path d="M31.2688 6.53234C30.9632 6.13661 30.6576 5.74089 30.3521 5.44409L2.85186 26.2197C3.05557 26.7143 3.36113 27.11 3.66669 27.4068C3.76854 27.6047 3.97224 27.8026 4.0741 27.9015L31.778 7.12592C31.5743 6.92806 31.4725 6.7302 31.2688 6.53234Z" fill="#63D1BB"/>
<path d="M32.8984 8.90674L5.70373 29.4844C6.21299 29.9791 6.82411 30.4738 7.43522 30.8695L33.9169 10.8854C33.6114 10.1928 33.3058 9.50033 32.8984 8.90674Z" fill="#63D1BB"/>
</svg>

<svg width="35" height="34" fill="none" xmlns="http://www.w3.org/2000/svg"><path d="M.306 13.953a16.044 16.044 0 000 6.232l4.176-3.165-4.176-3.067zM24.852 1.586C19.963-.59 14.259-.59 9.269 1.982l7.638 5.54 7.945-5.936zm9.676 11.476l-4.889 3.66 4.99 3.66c.51-2.373.51-4.946-.101-7.32zM9.37 32.057c4.89 2.473 10.899 2.671 15.991.099l-8.25-6.035-7.74 5.936zM8.046 14.249L1.732 9.698c-.306.692-.612 1.385-.815 2.078l5.398 3.957 1.731-1.484zm10.899 10.586l8.453 6.134c.306-.198.611-.396.815-.594.306-.198.611-.495.917-.791l-8.454-6.134-1.731 1.385zm-7.334-13.257L4.074 6.137c-.51.495-.917 1.088-1.324 1.682l7.028 5.144 1.833-1.385zM22.51 22.163l8.25 6.035c.509-.494.916-1.088 1.324-1.681l-7.843-5.739-1.732 1.386zM15.176 8.907L7.333 3.169c-.203.099-.407.297-.61.396-.408.296-.816.593-1.121.989l7.843 5.64 1.731-1.287zm10.898 10.487l7.13 5.144c.306-.692.611-1.286.917-1.979l-6.213-4.55-1.834 1.385zm.816-16.72L.916 22.362c.203.692.509 1.385.815 2.077L28.722 3.96c-.509-.494-1.12-.89-1.833-1.286zm4.379 3.858c-.306-.395-.611-.791-.917-1.088L2.852 26.22c.204.494.51.89.815 1.187.102.198.305.396.407.494L31.778 7.127c-.204-.198-.305-.396-.51-.594zm1.629 2.375L5.704 29.484c.509.495 1.12.99 1.731 1.385l26.482-19.984c-.306-.692-.611-1.385-1.019-1.978z" fill="#63D1BB"/></svg>
